!!! OTL: Berkowitz31
!!! Chapter: 1
!!! Section: I
!!! Page: 10
!!! Mode: 
!!! Encoder: DJB
**kern
*staff1
*I"Piano
=1-
*clefF4
*k[b-e-a-d-]
*A-:
*M4/4
4.AA-/
8C/
4E-\
4A-\
=2
8B-\L
8A-\
8G\
8F\J
2E-\
=3
8F\L
8E-\
8D-\
8C\J
4BB-/
4AA-/
=4
4.GG/
8AA-/
2BB-/
=5
4.AA-/
8C/
4E-\
4A-\
=6
8B-\L
8A-\
8G\
8F\J
2E-\
=7
8A-\L
8G\
8F\
8E-\J
8D-/L
8C/
8BB-/
8AA-/J
=8
4.BB-/
8C/
2AA-/
==
*-
